svgs/duotone/truck-flatbed.svg

<svg xmlns="http://www.w3.org/2000/svg" viewBox="0 0 640 512"><!-- Font Awesome Pro 6.0.0-alpha2 by @fontawesome - https://fontawesome.com License - https://fontawesome.com/license (Commercial License) --><defs><style>.fa-secondary{opacity:.4}</style></defs><path d="M176 352C131.816 352 96 387.816 96 432C96 476.182 131.816 512 176 512S256 476.182 256 432C256 387.816 220.184 352 176 352ZM464 352C419.816 352 384 387.816 384 432C384 476.182 419.816 512 464 512S544 476.182 544 432C544 387.816 508.184 352 464 352Z" class="fa-secondary"/><path d="M624 352H608V237.25C608 220.281 601.26 204.01 589.262 192.012L511.988 114.738C499.99 102.74 483.717 96 466.75 96H384C366.326 96 352 110.326 352 128V288H32C14.326 288 0 302.326 0 320V384C0 401.672 14.326 416 32 416H66.158C74.027 361.926 119.777 320 176 320C232.279 320 278.535 361.861 286.383 416H353.617C361.465 361.861 407.721 320 464 320C520.223 320 565.973 361.926 573.842 416H624C632.801 416 640 408.799 640 400V368C640 359.203 632.812 352 624 352ZM544 256H416V160H466.75L544 237.25V256Z" class="fa-primary"/></svg>

<svg xmlns="http://www.w3.org/2000/svg" viewBox="0 0 640 512"><!--! Font Awesome Pro 6.0.0-alpha3 by @fontawesome - https://fontawesome.com License - https://fontawesome.com/license (Commercial License) --><defs><style>.fa-secondary{opacity:.4}</style></defs><path class="fa-primary" d="M624 352H608V237.2c0-16.97-6.74-33.24-18.74-45.24l-77.27-77.27C499.1 102.7 483.7 96 466.8 96H384c-17.67 0-32 14.33-32 32v160H32c-17.67 0-32 14.33-32 32v64c0 17.67 14.33 32 32 32h34.16C74.03 361.9 119.8 320 176 320c56.28 0 102.5 41.86 110.4 96h67.23C361.5 361.9 407.7 320 464 320c56.22 0 101.1 41.93 109.8 96H624c8.801 0 16-7.201 16-16v-32C640 359.2 632.8 352 624 352zM544 256h-128V160h50.75L544 237.3V256z"/><path class="fa-secondary" d="M176 352C131.8 352 96 387.8 96 432C96 476.2 131.8 512 176 512S256 476.2 256 432C256 387.8 220.2 352 176 352zM464 352c-44.18 0-80 35.82-80 80c0 44.18 35.82 80 80 80s80-35.82 80-80C544 387.8 508.2 352 464 352z"/></svg>
